X:6646
T:The Congress
O:england
C:Trad
R:Reel
M:C|
K:Am
L:1/8
eAAG A2 (3Bcd|eAaf gedg|eARA2 eAce|BdGB dGBd|eAAG A2 (3Bcd|eAaf gedB|
cBcd eged|ceBe A2 (3Bcd :| eaag a3g |eaaf gedg|egdg egdg|eAaf gedg |
eaa^g a3g|eaaf gedB|cBcd eged|ceBe A4 ||


